X:1
T:Dupplin Castle
T:Dupplin Castle
T:Alexander Walker
C:Alexander Walker
L:1/8
M:4/4
K:Dmin
V:1 treble 
V:1
 C | A,>D (F/E/).D/.C/ A>DF>D | E<CG>C c>G E>C | A,>D (F/E/)D/C/ A>DF>G | E>CG>E F<D D :| d | %6
 f>dA>d F>d D>f | e>cG>c E>c G>e | f<dA>d F>GA>B | c>A G>E D/D/D D>d | f<dA>d F>d D>f | %11
 e<cG>c E>c G>e | d>ef>g a>bc'>a | g>ec>e d/d/d d2 || %14

